X:1
T:Title
%%score { 1 | 2 } 3
L:1/8
Q:1/4=150
M:3/4
K:C
V:1 treble nm="Grand Piano, Track 2"
V:2 treble 
V:3 bass nm="Grand Piano, Track 3"
V:1
 z2 z2 c2 | G4 cd | e4 ed | c4 e2 | d4 cA | G4 cd | e4 ed | c4 d2 | e4 de | c2 c2 c2 | ce d2 c2 | %11
 d>e de dc | G2 c>B cA | G2 cd e2- | e4 de | c2 c2 c2 | ce d2 c2 | d>e de dc | G2 c>B cA | %19
 G2 cd e2- | e6 |] %21
V:2
 z2 z2 G,A, | C4 ED | C4[K:bass] A,G, | C4 E,2 | G,4 G,A, | C4 ED | C4 A,G, | C4 ED | E4 DE | %9
 G2 G2 G2 | EC ED E2 | G,>A, G,E, G,A, | C2 E>D EC | C2 G,A, C2- | C4 DE | G2 G2 G2 | EC ED E2 | %17
 G,>A, G,E, G,A, | C2 E>D EC | C2 G,A, C2- | C6 |] %21
V:3
 z2 z2 G,E, | C,4 E,F, | G,4 A,G, | C4 [C,C]2 | G,4 G,E, | C,4 E,F, | G,4 A,G, | C4 A,G, | %8
 G,4 G,A, | C2 C2 C2 | A,C[K:bass] A,G, E,2 | D,>C, D,E, G,2 | G,2 [C,C]>[D,D] [C,C][C,A,] | %13
 G,2 E,G, C,2- | C,4 G,A, | C2 C2 C2 | A,C[K:bass] A,G, E,2 | D,>C, D,E, G,2 | %18
 G,2 [C,C]>[D,D] [C,C][C,A,] | G,2 E,G, C,2- | C,6 |] %21

